icons/themes/default/skip.svg

<svg viewBox="0 0 16 16" fill="none" xmlns="http://www.w3.org/2000/svg">
<path fill-rule="evenodd" clip-rule="evenodd" d="M5.65646 14.3736C5.85172 14.5688 6.1683 14.5688 6.36356 14.3736L8.36356 12.3736C8.41757 12.3196 8.45664 12.2563 8.48077 12.1888C8.49432 12.1511 8.50345 12.1112 8.50754 12.0698C8.51081 12.0369 8.51083 12.0037 8.5076 11.9708C8.50362 11.9301 8.49473 11.8907 8.48155 11.8534C8.45761 11.7855 8.41858 11.7218 8.36444 11.6673L6.36444 9.65735C6.16967 9.4616 5.85309 9.46081 5.65734 9.65559C5.46159 9.85036 5.4608 10.1669 5.65558 10.3627L6.80715 11.52H5.77999C4.79073 11.52 3.84199 11.127 3.14248 10.4275C2.44297 9.72802 2.04999 8.77928 2.04999 7.79002C2.04999 6.80076 2.44297 5.85202 3.14248 5.15251C3.84199 4.453 4.79073 4.06002 5.77999 4.06002H7.33999C7.61613 4.06002 7.83999 3.83616 7.83999 3.56002C7.83999 3.28388 7.61613 3.06002 7.33999 3.06002H5.77999C4.52551 3.06002 3.32242 3.55836 2.43537 4.4454C1.54833 5.33245 1.04999 6.53554 1.04999 7.79002C1.04999 9.04449 1.54833 10.2476 2.43537 11.1346C3.32242 12.0217 4.52551 12.52 5.77999 12.52H6.8029L5.65646 13.6665C5.46119 13.8617 5.46119 14.1783 5.65646 14.3736ZM13.13 14.3L11.35 14.3L11.3463 14.3C10.8232 14.2961 10.3403 14.1624 9.99146 13.8136C9.64192 13.464 9.51001 12.9817 9.51001 12.46L9.51 10.68L9.51002 10.6763C9.51394 10.1555 9.64812 9.6747 9.99778 9.32764C10.3475 8.98058 10.8293 8.85002 11.35 8.85002H13.13C13.6504 8.85002 14.1326 8.98046 14.4811 9.32897C14.8296 9.67747 14.96 10.1596 14.96 10.68V12.46C14.96 12.9828 14.8301 13.4669 14.4824 13.8172C14.134 14.1682 13.6514 14.3 13.13 14.3ZM10.6986 13.1065C10.7962 13.2041 10.9829 13.297 11.352 13.3H13.13C13.4953 13.3 13.6777 13.2085 13.7726 13.1128C13.8683 13.0164 13.96 12.8306 13.96 12.46V10.68C13.96 10.3138 13.8688 10.1309 13.774 10.0361C13.6791 9.94125 13.4963 9.85002 13.13 9.85002H11.35C10.9841 9.85002 10.7992 9.94112 10.7022 10.0374C10.6054 10.1335 10.513 10.3172 10.51 10.682V12.46C10.51 12.825 10.6014 13.0093 10.6986 13.1065ZM10.51 4.90001C10.51 5.26532 10.6016 5.44767 10.6972 5.54264C10.7936 5.63828 10.9795 5.73001 11.35 5.73001H13.13C13.4963 5.73001 13.6791 5.63878 13.774 5.54396C13.8688 5.44913 13.96 5.26627 13.96 4.90001V3.12001C13.96 2.75407 13.8689 2.56923 13.7726 2.47224C13.6765 2.37539 13.4928 2.28305 13.128 2.28001H11.35C10.985 2.28001 10.8007 2.37144 10.7036 2.46856C10.6059 2.56621 10.5131 2.75292 10.51 3.12197V4.90001ZM11.35 6.73001C10.8272 6.73001 10.3431 6.60007 9.99278 6.25239C9.64179 5.90402 9.51001 5.42137 9.51001 4.90001L9.51 3.12001L9.51002 3.11628C9.51393 2.59317 9.64759 2.11032 9.99646 1.76146C10.346 1.41192 10.8283 1.28001 11.35 1.28001L13.13 1.28L13.1338 1.28002C13.6545 1.28394 14.1353 1.41812 14.4824 1.76778C14.8294 2.11745 14.96 2.59929 14.96 3.12001V4.90001C14.96 5.42042 14.8296 5.90256 14.4811 6.25106C14.1326 6.59957 13.6504 6.73001 13.13 6.73001H11.35Z" fill="currentColor"/>
</svg>

<svg xmlns="http://www.w3.org/2000/svg" fill="none" viewBox="0 0 16 16">
  <path fill="currentColor" fill-rule="evenodd" d="M5.656 14.374a.5.5 0 0 0 .708 0l2-2a.498.498 0 0 0 0-.707l-2-2.01a.5.5 0 1 0-.708.706l1.151 1.157H5.78a3.73 3.73 0 0 1 0-7.46h1.56a.5.5 0 0 0 0-1H5.78a4.73 4.73 0 0 0 0 9.46h1.023l-1.147 1.146a.5.5 0 0 0 0 .708Zm7.474-.074h-1.784c-.523-.004-1.006-.138-1.355-.486-.35-.35-.481-.832-.481-1.354v-1.784c.004-.52.138-1.001.488-1.348.35-.347.831-.478 1.352-.478h1.78c.52 0 1.003.13 1.351.479.349.348.479.83.479 1.351v1.78c0 .523-.13 1.007-.478 1.357-.348.351-.83.483-1.352.483Zm-2.431-1.194c.097.098.284.191.653.194h1.778c.365 0 .548-.091.643-.187.095-.097.187-.282.187-.653v-1.78c0-.366-.091-.55-.186-.644-.095-.095-.278-.186-.644-.186h-1.78c-.366 0-.55.091-.648.187-.097.096-.189.28-.192.645v1.778c0 .365.091.55.189.646ZM10.51 4.9c0 .365.092.548.187.643.097.095.283.187.653.187h1.78c.366 0 .55-.091.644-.186.095-.095.186-.278.186-.644V3.12c0-.366-.091-.55-.187-.648-.096-.097-.28-.189-.645-.192H11.35c-.365 0-.55.091-.646.189-.098.097-.19.284-.194.653V4.9Zm.84 1.83c-.523 0-1.007-.13-1.357-.478-.351-.348-.483-.83-.483-1.352V3.116c.004-.523.138-1.006.486-1.355.35-.35.832-.481 1.354-.481h1.784c.52.004 1.001.138 1.348.488.347.35.478.831.478 1.352V4.9c0 .52-.13 1.003-.479 1.351-.348.349-.83.479-1.351.479h-1.78Z" clip-rule="evenodd"/>
</svg>
